!!!COA:	Josquin des Prez
!!!CDT:	~1450-1521/08/27
!!!OTL:	Deus pacis reduxit
!!!AGN:	Motet
!!!SCT:	NJE 26.4
!!!SCA:	New Josquin Edition 26.4
!!!voices:	4
**kern	**kern	**kern	**kern
*staff4	*staff3	*staff2	*staff1
*Ivox	*Ivox	*Ivox	*Ivox
*I"Bassus	*I"Tenor	*I"Contratenor	*I"Discantus
*I'B	*I'T	*I'Ct	*I'D
*clefF4	*clefGv2	*clefGv2	*clefG2
*k[b-e-]	*k[b-e-]	*k[b-e-]	*k[b-]
*M2/1	*M2/1	*M2/1	*M2/1
*met(C|)	*met(C|)	*met(C|)	*met(C|)
=1-	=1-	=1-	=1-
0r	0r	1r	0f
.	.	[1B-\	.
=2	=2	=2	=2
0r	0r	1B-\]	1g/
.	.	1c\	1a/
=3	=3	=3	=3
0r	0r	1d\	1.b-\
.	.	[1e-\	.
.	.	.	2g/
=4	=4	=4	=4
0r	0r	2e-\]	1g/
.	.	2c\	.
.	.	1c\	1r
=5	=5	=5	=5
0r	0r	1r	1cc\
.	.	1f\	[1cc\
=6	=6	=6	=6
0r	0r	1.f\	2cc\]
.	.	.	2b-\
.	.	.	2a/
.	.	2e-\	2g/
=7	=7	=7	=7
0r	0r	2d\	1a/
.	.	2c\	.
.	.	1d\	1f/
=8	=8	=8	=8
0r	0r	1B-\	1g/
.	.	1c\	1g/
=9	=9	=9	=9
1r	0F	1c\	1a/
[1BB-/	.	1d\	1r
=10	=10	=10	=10
1BB-/]	1G/	0r	0r
1C/	1A/	.	.
=11	=11	=11	=11
1D\	1.B-\	0r	0r
[1E-\	.	.	.
.	2G/	.	.
=12	=12	=12	=12
2E-\]	1G/	0r	0r
2C/	.	.	.
1C/	1r	.	.
=13	=13	=13	=13
1r	1c\	0r	0r
1F\	[1c\	.	.
=14	=14	=14	=14
1.F\	2c\]	0r	0r
.	2B-\	.	.
.	2A/	.	.
2E-\	2G/	.	.
=15	=15	=15	=15
2D\	1A/	0r	0r
2C/	.	.	.
1D\	1F/	.	.
=16	=16	=16	=16
1BB-/	1G/	0r	0r
1C/	1G/	.	.
=17	=17	=17	=17
1C/	1A/	1r	0r
1D\	1r	1d\	.
=18	=18	=18	=18
0r	0r	1.f\	1a/
.	.	.	[1cc\
.	.	2f\	.
=19	=19	=19	=19
0r	0r	1f\	2cc\]
.	.	.	2cc\
.	.	1e-\	1cc\
=20	=20	=20	=20
0r	0r	1e-\	1.b-\
.	.	2.d\	.
.	.	.	2b-\
.	.	4e-\	.
=21	=21	=21	=21
1D\	1r	[0f	[0a
[1F\	1A/	.	.
=22	=22	=22	=22
2F\]	1.c\	0f]	0a]
2F\	.	.	.
1F\	.	.	.
.	2c\	.	.
=23	=23	=23	=23
1E-\	1c\	0r	0r
1E-\	1B-\	.	.
=24	=24	=24	=24
2.D\	1B-\	0r	0r
4E-\	.	.	.
[1F\	1A/	.	.
=25	=25	=25	=25
1F\]	1r	0r	1.cc\
1r	[1c\	.	.
.	.	.	2cc\
=26	=26	=26	=26
1.F\	2c\]	1r	1cc\
.	2c\	.	.
.	1c\	[1f\	2.a/
2F\	.	.	.
.	.	.	4f/
=27	=27	=27	=27
1F\	2.A/	2f\]	2f/
.	.	2f\	1a/
.	4F/	.	.
2.D\	1F/	1f\	.
.	.	.	[2b-\
4BB-/	.	.	.
=28	=28	=28	=28
1BB-/	1.B-\	2.d\	4b-/]
.	.	.	4a/
.	.	.	2f/
.	.	4B-\	.
[1E-\	.	1B-\	2g/
.	2A/	.	2a/
=29	=29	=29	=29
1E-\]	2.G/	1r	2b-\
.	.	.	2cc\
.	4F/	.	.
1D\	[1B-\	1F/	1dd\
=30	=30	=30	=30
0C	2B-\]	1G/	1ee-i\
.	4A/	.	.
.	4G/	.	.
.	1A/	2.E-/	2cc\
.	.	.	[2ee-i\
.	.	4F/	.
=31	=31	=31	=31
[0BB-	1.B-\	2G/	2ee-i\]
.	.	1F/	4dd\
.	.	.	4cc\
.	.	.	2dd\
.	2A/	[2f\	2cc\
=32	=32	=32	=32
0BB-]	1G/	2f\]	1.b-\
.	.	2e-\	.
.	1F/	2.d\	.
.	.	.	4a/
.	.	8c\L	4g/
.	.	8B-\J	.
=33	=33	=33	=33
0r	0r	1c\	1a/
.	.	2B-\	[1b-\
.	.	2e-\	.
=34	=34	=34	=34
0r	0r	4d\	2b-\]
.	.	4c\	.
.	.	1f\	2a/
.	.	.	1g/
.	.	2eni\	.
=35	=35	=35	=35
1r	1B-\	1f\	1f/
1F\	1c\	1r	1r
=36	=36	=36	=36
1G\	2e-\	0r	0r
.	1d\	.	.
2B-\	.	.	.
[2A\	4c\	.	.
.	4B-\	.	.
=37	=37	=37	=37
2A\]	1c\	1r	0r
4G\	.	.	.
4F\	.	.	.
1G\	2B-\	1B-\	.
.	[2B-\	.	.
=38	=38	=38	=38
1F\	2B-\]	1c\	1f/
.	2A/	.	.
1r	2c\	2e-\	1g/
.	2B-\	[2d\	.
=39	=39	=39	=39
0r	2r	2d\]	2b-\
.	1f\	4c\	1a/
.	.	4B-\	.
.	.	1c\	.
.	2e-\	.	4g/
.	.	.	4f/
=40	=40	=40	=40
1r	2.d\	1B-\	1g/
.	8c\L	.	.
.	8B-\J	.	.
1F\	1A/	2r	1f/
.	.	[2d\	.
=41	=41	=41	=41
1G\	1B-\	2d\]	0r
.	.	4c\	.
.	.	4B-\	.
2B-\	1r	2d\	.
[2A\	.	2c\	.
=42	=42	=42	=42
2A\]	1r	2F/	1r
4G\	.	1f\	.
4F\	.	.	.
1G\	1B-\	.	2r
.	.	2eni\	2g/
=43	=43	=43	=43
1F\	1c\	1f\	2a/
.	.	.	2.cc\
1r	2e-\	1r	.
.	.	.	4a/
.	[2d\	.	2b-\
=44	=44	=44	=44
0r	2d\]	0r	2f/
.	4c\	.	1b-\
.	4B-\	.	.
.	1c\	.	.
.	.	.	2a/
=45	=45	=45	=45
1BB-/	0B-	1F/	0b-
[1E-\	.	2.G/	.
.	.	4A/	.
=46	=46	=46	=46
1E-\]	0r	2B-\	0r
.	.	1c\	.
1D\	.	.	.
.	.	2B-\	.
=47	=47	=47	=47
2.C/	0r	4c/	0r
.	.	4G/	.
.	.	2.c\	.
4D\	.	.	.
2E-\	.	.	.
.	.	4B-\	.
[2F\	.	4A/	.
.	.	4F/	.
=48	=48	=48	=48
2F\]	0r	4G/	0r
.	.	4A/	.
2E-\	.	4B-\	.
.	.	4c\	.
1F\	.	4d\	.
.	.	4e-\	.
.	.	[2f\	.
=49	=49	=49	=49
0r	1B-\	4f\]	1f/
.	.	4e-\	.
.	.	2d\	.
.	[1e-\	1c\	2.g/
.	.	.	4a/
=50	=50	=50	=50
0r	1e-\]	0r	2b-\
.	.	.	1cc\
.	1d\	.	.
.	.	.	2b-\
=51	=51	=51	=51
0r	2.c\	0r	4cc/
.	.	.	4g/
.	.	.	2.cc\
.	4d\	.	.
.	2e-\	.	.
.	.	.	4b-\
.	[2f\	.	4a/
.	.	.	4f/
=52	=52	=52	=52
1r	2f\]	1c\	1g/
.	2e-\	.	.
1F\	1f\	[1c\	2.a/
.	.	.	4f/
=53	=53	=53	=53
1.F\	2r	2c\]	2a/
.	2f\	2B-\	2b-\
.	[1f\	2A/	1cc\
2E-\	.	2G/	.
=54	=54	=54	=54
2D\	2f\]	1F/	[0dd
2C/	2e-\	.	.
1BB-/	2d\	1f\	.
.	2c\	.	.
=55	=55	=55	=55
1B-\	1B-\	1.f\	0dd]
[1B-\	1r	.	.
.	.	2e-\	.
=56	=56	=56	=56
2B-\]	0r	2d\	0r
2A\	.	2c\	.
2G\	.	2B-\	.
2F\	.	[2c\	.
=57	=57	=57	=57
1E-\	0r	4c\]	1r
.	.	4B-\	.
.	.	2G/	.
1r	.	1A/	1cc\
=58	=58	=58	=58
1r	1c\	1F/	1.cc\
1F\	[1c\	1r	.
.	.	.	2b-\
=59	=59	=59	=59
1.F\	2c\]	1r	2a/
.	2B-\	.	2g/
.	2A/	1c\	1f/
2E-\	2G/	.	.
=60	=60	=60	=60
2D\	1F/	0d	1f/
2C/	.	.	.
1BB-/	1F/	.	2b-\
.	.	.	[2b-\
=61	=61	=61	=61
1BB-/	1B-\	1d\	4b-/]
.	.	.	4a/
.	.	.	4g/
.	.	.	4f/
1E-\	2B-\	1G/	1g/
.	2B-\	.	.
=62	=62	=62	=62
2E-\	1c\	2r	1g/
2E-\	.	2G/	.
2.D\	2.d\	2A/	1f/
.	.	2B-\	.
4E-\	4c\	.	.
=63	=63	=63	=63
2F\	2d\	2A/	0r
2.G\	2.e-\	2.B-\	.
4F\	4d\	4A/	.
2D\	[2d\	2F/	.
=64	=64	=64	=64
2E-\	2d\]	2G/	0r
2.F\	2c\	2.A/	.
.	2d\	.	.
4E-\	.	4B-\	.
2C/	[2e-\	2c\	.
=65	=65	=65	=65
1D\	4e-\]	4B-/	0r
.	4d\	4A/	.
.	1d\	1A/	.
1E-\	.	.	.
.	2c\	2G/	.
=66	=66	=66	=66
1D\	0d	1A/	1f/
1r	.	2r	1b-\
.	.	2B-\	.
=67	=67	=67	=67
0r	0r	1e-\	2b-\
.	.	.	2b-\
.	.	2e-\	1cc\
.	.	2e-\	.
=68	=68	=68	=68
0r	0r	2.d\	2.dd\
.	.	4e-\	4cc\
.	.	2f\	2dd\
.	.	[2g\	[2ee-i\
=69	=69	=69	=69
0r	0r	4g\]	4ee-\]
.	.	4f\	4dd\
.	.	2d\	1dd\
.	.	2e-\	.
.	.	[2f\	2cc\
=70	=70	=70	=70
0r	0r	4f\]	2dd\
.	.	4e-\	.
.	.	2c\	2.ee-i\
.	.	1d\	.
.	.	.	4dd\
.	.	.	[2dd\
=71	=71	=71	=71
1r	0r	1e-\	2dd\]
.	.	.	2cc\
1D\	.	1d\	[1dd\
=72	=72	=72	=72
1.G\	0r	2r	1dd\]
.	.	1d\	.
.	.	.	1r
2G\	.	4c\	.
.	.	4B-\	.
=73	=73	=73	=73
1F\	1A/	1c\	0r
2r	[1d\	2B-\	.
[2B-\	.	2G/	.
=74	=74	=74	=74
2B-\]	2d\]	1G/	0r
4A\	2d\	.	.
4G\	.	.	.
4A\	1c\	1r	.
4G\	.	.	.
4F\	.	.	.
4E-\	.	.	.
=75	=75	=75	=75
2.D\	2r	0r	0r
.	1d\	.	.
4E-\	.	.	.
4F\	.	.	.
4D\	.	.	.
[2G\	4c\	.	.
.	4B-\	.	.
=76	=76	=76	=76
2G\]	1c\	1A/	0r
2F#i\	.	.	.
1G\	[1B-\	[1d\	.
=77	=77	=77	=77
2r	1B-\]	2d\]	1r
1G\	.	2d\	.
.	1r	1c\	1a/
2F\	.	.	.
=78	=78	=78	=78
2G\	0r	2r	1.dd\
2D\	.	1f\	.
1D\	.	.	.
.	.	4e-\	2dd\
.	.	4d\	.
=79	=79	=79	=79
0r	1r	2e-\	1cc\
.	.	2f\	.
.	1B-\	2.d\	2r
.	.	.	[2dd\
.	.	4e-\	.
=80	=80	=80	=80
0r	1B-\	4f\	2dd\]
.	.	4d\	.
.	.	1g\	4cc\
.	.	.	4b-\
.	1A/	.	1cc\
.	.	2f#i\	.
=81	=81	=81	=81
1r	2.G/	1g\	0b-
.	4A/	.	.
1E-\	4B-/	2r	.
.	4G/	.	.
.	[2B-\	[2G/	.
=82	=82	=82	=82
1E-\	2B-\]	4G/]	0r
.	.	4A/	.
.	4A/	4B-\	.
.	4G/	4c\	.
1D\	1F/	1d\	.
=83	=83	=83	=83
2.C/	1c\	1r	0r
4D\	.	.	.
4E-\	2r	1e-\	.
4C\	.	.	.
[2E-\	2G/	.	.
=84	=84	=84	=84
2E-\]	4B-\	1e-\	1b-\
.	4c\	.	.
4D/	4d\	.	.
4C/	4e-\	.	.
1BB-/	2f\	1d\	1b-\
.	[2F/	.	.
=85	=85	=85	=85
1F\	4F/]	2.c\	1a/
.	4G/	.	.
.	4A/	.	.
.	4B-/	4d\	.
1r	1c\	4e-\	2.g/
.	.	4c\	.
.	.	[2e-\	.
.	.	.	4a/
=86	=86	=86	=86
0r	0r	2e-\]	4b-/
.	.	.	4g/
.	.	4d\	1b-\
.	.	4c\	.
.	.	1B-\	.
.	.	.	4a/
.	.	.	4g/
=87	=87	=87	=87
0r	1B-\	1f\	1f/
.	2A/	2r	1cc\
.	[2A/	[2F/	.
=88	=88	=88	=88
0r	2A/]	4F/]	1r
.	.	4G/	.
.	2F/	2A/	.
.	1G/	2B-\	1b-\
.	.	[2d\	.
=89	=89	=89	=89
0r	4F/	2d\]	2a/
.	4G/	.	.
.	4A/	4c\	1a/
.	4B-/	4B-\	.
.	4c\	2A/	.
.	4A\	.	.
.	[2d\	[2B-\	2f/
=90	=90	=90	=90
1E-\	2d\]	2B-\]	1g/
.	2c\	2G/	.
2D\	1d\	1A/	2.f/
[2D\	.	.	.
.	.	.	4g/
=91	=91	=91	=91
2D\]	1r	2F/	4a/
.	.	.	4f/
2BB-/	.	1G/	1b-\
1C/	1e-\	.	.
.	.	2E-/	2a/
=92	=92	=92	=92
1BB-/	2d\	2F/	1b-\
.	1d\	2.G/	.
1r	.	.	1r
.	.	4F/	.
.	2B-\	[2f\	.
=93	=93	=93	=93
0r	1c\	2f\]	1ee-i\
.	.	2e-\	.
.	1B-\	2.f\	2dd\
.	.	.	[2dd\
.	.	4d\	.
=94	=94	=94	=94
0r	0r	2f\	2dd\]
.	.	1e-\	2b-\
.	.	.	1cc\
.	.	2c\	.
=95	=95	=95	=95
1B-\	1r	1d\	2b-\
.	.	.	2.f/
2A\	2r	1c\	.
.	.	.	4g/
[2A\	[2F/	.	4a/
.	.	.	4b-/
=96	=96	=96	=96
2A\]	4F/]	2r	4cc\
.	4G/	.	4a\
2F\	2A/	2f\	2.dd\
1G\	2B-\	2d\	.
.	.	.	4cc\
.	2G/	2B-\	2ee-i\
=97	=97	=97	=97
1F\	2.A/	1f\	2dd\
.	.	.	2.cc\
.	4B-\	.	.
1r	4c\	2e-\	.
.	4d\	.	4b-\
.	2e-\	2c\	4a/
.	.	.	4g/
=98	=98	=98	=98
1r	2d\	2r	2a/
.	2B-\	1f\	2b-\
2r	1c\	.	1g/
2C/	.	2e-\	.
=99	=99	=99	=99
2D\	1F/	2d\	1f/
1F\	.	2c\	.
.	2r	1d\	2r
2D\	2F/	.	[2b-\
=100	=100	=100	=100
2E-\	2G/	1c\	2b-\]
2F\	2A/	.	2a/
1BB-/	1B-\	1r	2g/
.	.	.	2f/
=101	=101	=101	=101
2r	1B-\	1r	1g/
1E-\	.	.	.
.	1r	2r	1f/
2D\	.	2B-\	.
=102	=102	=102	=102
2C/	2r	2c\	1r
2BB-/	1B-\	2d\	.
1C/	.	2.e-\	2r
.	2A/	.	2a/
.	.	4d\	.
=103	=103	=103	=103
1BB-/	2G/	2d\	2b-\
.	2F/	2B-\	1dd\
2r	1G/	1B-\	.
[2B-\	.	.	4cc\
.	.	.	4b-\
=104	=104	=104	=104
2B-\]	1F/	2r	2cc\
2A\	.	2c\	2f/
2G\	2r	2e-\	2g/
2F\	[2f\	[2d\	2a/
=105	=105	=105	=105
1G\	2f\]	2d\]	2.b-\
.	2e-\	4c\	.
.	.	4B-\	4g/
[1F\l	2d\	[1f\l	[1a/l
.	2c\	.	.
=106	=106	=106	=106
0F]	1d\	0f]	0a]
.	1c\l	.	.
!!LO:LB:i:g=z
=107||	=107||	=107||	=107||
*k[b-e-]	*k[b-e-]	*k[b-e-]	*k[b-]
*M2/1	*M2/1	*M2/1	*M2/1
*met(C|)	*met(C|)	*met(C|)	*met(C|)
!!section: Secunda pars: Is absolutos
!!!OMD: Secunda pars: Is absolutos
0r	0r	1.c\	0g
.	.	4B-/	.
.	.	4A/	.
=108	=108	=108	=108
0r	0r	2G/	1g/
.	.	2.c\	.
.	.	.	1g/
.	.	4B-\	.
.	.	4A/	.
.	.	4G/	.
=109	=109	=109	=109
0r	0c	4F/	1a/
.	.	4G/	.
.	.	4A/	.
.	.	4B-/	.
.	.	2c\	2g/
.	.	[2F/	[2a/
=110	=110	=110	=110
0r	1c\	2F/]	2a/]
.	.	2.f\	4g/
.	.	.	4f/
.	1c\	.	1g/
.	.	4eni\	.
.	.	4eni\	.
.	.	4d\	.
=111	=111	=111	=111
0F	1d\	[0f	2.f/
.	.	.	4g/
.	2c\	.	2.a/
.	[2d\	.	.
.	.	.	4g/
=112	=112	=112	=112
1F\	2d\]	0f]	4a/
.	.	.	4f/
.	4c\	.	1b-\
.	4B-\	.	.
1F\	1c\	.	.
.	.	.	2a/
=113	=113	=113	=113
1G\	2.B-\	0r	1b-\
.	4c\	.	.
2F\	2.d\	.	1r
[2G\	.	.	.
.	4c\	.	.
=114	=114	=114	=114
2G\]	4d\	0r	1r
.	4B-\	.	.
4F\	1e-\	.	.
4E-\	.	.	.
1F\	.	.	1a/
.	2d\	.	.
=115	=115	=115	=115
1E-\	1e-\	2r	1g/
.	.	2.B-\	.
1r	1r	.	[1b-\
.	.	4c\	.
.	.	4d\	.
.	.	4e-\	.
=116	=116	=116	=116
0r	1d\	2f\	2b-\]
.	.	2.F/	2a/
.	1c\	.	1a/
.	.	4G/	.
.	.	4A/	.
.	.	4B-/	.
=117	=117	=117	=117
0r	1.e-\	1c\	2.g/
.	.	.	4a/
.	.	2.G/	4b-\
.	.	.	4cc\
.	2d\	.	[2dd\
.	.	4A/	.
=118	=118	=118	=118
1r	1d\	4B-\	2dd\]
.	.	4c\	.
.	.	2.d\	4cc\
.	.	.	4b-\
1D\	1r	.	1a/
.	.	4e-\	.
.	.	[2f\	.
=119	=119	=119	=119
1C/	0r	2f\]	2r
.	.	2e-\	2cc\
[1E-\	.	[1g\	2b-\
.	.	.	4g/
.	.	.	4a/
=120	=120	=120	=120
2E-\]	1r	2g\]	4b-\
.	.	.	4cc\
2D\	.	2f\	1dd\
1D\	1d\	[1f\	.
.	.	.	4cc\
.	.	.	4b-\
=121	=121	=121	=121
1F\	1c\	1f\]	1a/
2.E-\	[1e-\	1B-\	1g/
4F\	.	.	.
=122	=122	=122	=122
4G\	2e-\]	1r	0b-
4A\	.	.	.
1B-\	2d\	.	.
.	1d\	1B-\	.
4A\	.	.	.
4G\	.	.	.
=123	=123	=123	=123
1F\	1f\	2.c\	1a/
.	.	4d\	.
2.C/	[1e-\	4e-\	1cc\
.	.	4f\	.
.	.	2g\	.
4D\	.	.	.
=124	=124	=124	=124
4E-\	2e-\]	2.G/	1.b-\
4F\	.	.	.
1G\	2d\	.	.
.	.	4A/	.
.	1d\	4B-\	.
.	.	4c\	.
4F\	.	2d\	4a/
4E-\	.	.	4g/
=125	=125	=125	=125
1D\	1r	2d\	[0f
.	.	4c\	.
.	.	4B-\	.
1r	1c\	1A/	.
=126	=126	=126	=126
1F\	2c\	0r	0f]
.	2c\	.	.
2F\	1d\	.	.
2F\	.	.	.
=127	=127	=127	=127
1G\	2B-\	0r	0r
.	2B-\	.	.
2E-\	[1c\	.	.
2E-\	.	.	.
=128	=128	=128	=128
1.F\	2c\]	0r	0r
.	4B-/	.	.
.	4A/	.	.
.	2d\	.	.
4E-\	[2c\	.	.
4D\	.	.	.
=129	=129	=129	=129
4E-\	2c\]	0r	1r
4C\	.	.	.
1F\	4B-/	.	.
.	4A/	.	.
.	1G/	.	1cc\
2Eni\	.	.	.
=130	=130	=130	=130
1F\	1F/	1f\	2cc\
.	.	.	2cc\
1r	1r	2f\	1dd\
.	.	2f\	.
=131	=131	=131	=131
0r	0r	1g\	2b-\
.	.	.	2b-\
.	.	2e-\	[1cc\
.	.	2e-\	.
=132	=132	=132	=132
0r	0r	1.f\	2cc\]
.	.	.	4b-/
.	.	.	4a/
.	.	.	2dd\
.	.	4e-\	[2cc\
.	.	4d\	.
=133	=133	=133	=133
1r	0r	4e-\	2cc\]
.	.	4c\	.
.	.	1f\	4b-/
.	.	.	4a/
2r	.	.	1g/
2C/	.	2eni\	.
=134	=134	=134	=134
2D\	1r	1f\	0f
2E-\	.	.	.
1F\	2r	1r	.
.	2F/	.	.
=135	=135	=135	=135
1C/	2G/	2r	0r
.	2A/	2c\	.
1r	1B-\	2d\	.
.	.	2e-\	.
=136	=136	=136	=136
0r	1F/	1f\	2r
.	.	.	2f/
.	1r	1c\	2g/
.	.	.	2a/
=137	=137	=137	=137
1G\	0r	2r	1b-\
.	.	1d\	.
1B-\	.	.	1f/
.	.	4c\	.
.	.	4B-\	.
=138	=138	=138	=138
1A\	1r	2c\	0r
.	.	4F/	.
.	.	4G/	.
1F\	1c\	4A/	.
.	.	4B-/	.
.	.	4c\	.
.	.	4A\	.
=139	=139	=139	=139
2G\	1e-\	2B-\	0r
2A\	.	2c\	.
2B-\	1d\	4d\	.
.	.	4G\	.
[2G\	.	[2B-\	.
=140	=140	=140	=140
4G\]	1B-\	4B-/]	0r
4F\	.	4A/	.
4E-\	.	4G/	.
4D\	.	4F/	.
2C/	2c\	2A/	.
2BB-/	2d\	2B-\	.
=141	=141	=141	=141
2r	2e-\	2c\	1cc\
2.C/	2.c\	2G/	.
.	.	[1g\	1ee-i\
4D\	4B-\	.	.
4E-\	[2B-\	.	.
4F\	.	.	.
=142	=142	=142	=142
2G\	2B-\]	2g\]	1dd\
2D\	2A/	2f\	.
1G\	1B-\	2e-\	1b-\
.	.	2d\	.
=143	=143	=143	=143
1F\	2r	1f\	2cc\
.	2A/	.	2dd\
2E-\	2B-\	2g\	2ee-i\
2F\	2A/	[2f\	[2cc\
=144	=144	=144	=144
1BB-/	2.B-\	2f\]	4cc\]
.	.	.	4b-\
.	.	2d\	1b-\
.	8A/L	.	.
.	8G/J	.	.
1r	1F/	1c\	.
.	.	.	2a/
=145	=145	=145	=145
1E-\	1r	2r	1b-\
.	.	2.g\	.
[1E-\	1B-\	.	2r
.	.	4f\	.
.	.	4e-\	[2b-\
.	.	4d\	.
=146	=146	=146	=146
2E-\]	1.B-\	1e-\	4b-/]
.	.	.	4a/
2E-\	.	.	4g/
.	.	.	4f/
1BB-/	.	1d\	4g/
.	.	.	4f/
.	2B-\	.	[2ff\
=147	=147	=147	=147
2r	1F/	0r	4ff\]
.	.	.	4ee-i\
2.BB-/	.	.	4dd\
.	.	.	4cc\
.	2r	.	1dd\
4C/	.	.	.
4D\	[2F/	.	.
4E-\	.	.	.
=148	=148	=148	=148
2F\	4F/]	0r	1cc\
.	4G/	.	.
2F\	4A/	.	.
.	4B-/	.	.
2.F\	2c\	.	1r
.	2c\	.	.
4F\	.	.	.
=149	=149	=149	=149
2.C/	2.c\	1e-\	1r
4D\	4c\	.	.
[1E-\	2.G/	[1e-\	1b-\
.	4A/	.	.
=150	=150	=150	=150
1E-\]	0B-	2e-\]	1.b-\
.	.	2e-\	.
1r	.	1B-\	.
.	.	.	2b-\
=151	=151	=151	=151
0r	0r	2r	1f/
.	.	2.B-\	.
.	.	.	2r
.	.	4c\	.
.	.	4d\	[2f/
.	.	4e-\	.
=152	=152	=152	=152
0r	0r	2f\	4f/]
.	.	.	4g/
.	.	2f\	4a/
.	.	.	4b-/
.	.	2.f\	2cc\
.	.	.	2cc\
.	.	4f\	.
=153	=153	=153	=153
1r	0r	2.c\	2.cc\
.	.	4d\	4cc\
1E-\	.	[1e-\	2.g/
.	.	.	4a/
=154	=154	=154	=154
2E-\	1B-\	1e-\]	0b-
2E-\	.	.	.
2.G\	2B-\	2r	.
.	2B-\	2B-\	.
4A\	.	.	.
=155	=155	=155	=155
1B-\	2.d\	2B-\	0r
.	.	2B-\	.
.	4e-\	.	.
2r	1f\	2.d\	.
2BB-/	.	.	.
.	.	4e-\	.
=156	=156	=156	=156
2BB-/	2r	0f	1r
2BB-/	2F/	.	.
2.D\	2F/	.	2r
.	2F/	.	2f/
4E-\	.	.	.
=157	=157	=157	=157
0F	2.A/	1r	2f/
.	.	.	2f/
.	4B-\	.	.
.	[1c\	2r	2.a/
.	.	2F/	.
.	.	.	4b-\
=158	=158	=158	=158
2r	1c\]	2F/	1cc\
1F\	.	2F/	.
.	2r	2.A/	2r
2F\	[2c\	.	[2f/
.	.	4B-\	.
=159	=159	=159	=159
1F\	2c\]	2c\	4f/]
.	.	.	4g/
.	2c\	2F/	2.a/
1F\	[1c\	2f\	.
.	.	.	4b-\
.	.	2f\	4cc\
.	.	.	4dd\
=160	=160	=160	=160
1E-\	1c\]	1.g\	2.ee-i\
.	.	.	4cc\
[1G\	1B-\	.	2ee-i\
.	.	4f\	[2dd\
.	.	4e-\	.
=161	=161	=161	=161
1G\]	0d	2.d\	2dd\]
.	.	.	4cc\
.	.	4e-\	4b-\
[1F\	.	1f\	[1a/
=162	=162	=162	=162
1F\]	0c	2r	2a/]
.	.	1f\	2f/
1r	.	.	2.g/
.	.	2e-\	.
.	.	.	4a/
=163	=163	=163	=163
1BB-/	1r	1d\	1b-\
[1F\	1F/	1c\	[1a/
=164	=164	=164	=164
1F\]	0c	0r	2a/]
.	.	.	2f/
1E-\	.	.	2.g/
.	.	.	4a/
=165	=165	=165	=165
0G	1B-\	1r	1b-\
.	[1d\	1B-\	1r
=166	=166	=166	=166
0F	1d\]	0f	1f/
.	[1c\	.	[1cc\
=167	=167	=167	=167
2r	1.c\]	1e-\	1cc\]
2C/	.	.	.
4E-\	.	[1g\	1b-\
4F\	.	.	.
4G\	[2G/	.	.
4A\	.	.	.
=168	=168	=168	=168
2B-\	4G/]	1g\]	0dd
.	4A/	.	.
2G\	4B-\	.	.
.	4c\	.	.
2.B-\	2d\	1f\	.
.	2B-\	.	.
4A\	.	.	.
=169	=169	=169	=169
2.F\	2.f\	0r	0cc
4G\	4e-\	.	.
2A\	2.c\	.	.
2F\	.	.	.
.	4d\	.	.
=170	=170	=170	=170
4G\	2e-\	0r	0r
4F\	.	.	.
1B-\	2d\	.	.
.	1c\	.	.
2A\	.	.	.
=171	=171	=171	=171
*M3/1	*M3/1	*M3/1	*M3/1
*met(3)	*met(3)	*met(3)	*met(3)
1.B-\	0B-	1r	0f
.	.	0B-	.
2A\	.	.	.
1G\	1r	.	1g/
=172	=172	=172	=172
0F	0.r	1c\	0a
.	.	0d	.
1r	.	.	1f/
=173	=173	=173	=173
0.r	0.r	1B-\	1g/
.	.	1c\	1a/
.	.	1d\	1b-\
=174	=174	=174	=174
0.r	0.r	1e-\	1.cc\
.	.	1.f\	.
.	.	.	2b-\
.	.	.	2a/
.	.	2e-\	2g/
=175	=175	=175	=175
1r	0F	2d\	0f
.	.	2c\	.
0BB-	.	0B-	.
.	1G/	.	1r
=176	=176	=176	=176
1C/	0A	0.r	0.r
0D	.	.	.
.	1F/	.	.
=177	=177	=177	=177
1BB-/	1G/	0.r	0.r
1C/	1A/	.	.
1D\	1B-\	.	.
=178	=178	=178	=178
1E-\	1.c\	0.r	0.r
1.F\	.	.	.
.	2B-\	.	.
.	2A/	.	.
2E-\	2G/	.	.
=179	=179	=179	=179
2D\	0F	0.r	0.r
2C/	.	.	.
0BB-	.	.	.
.	[1f\	.	.
=180	=180	=180	=180
1.B-\	1f\]	1r	0f
.	1d\	0B-	.
2A\	.	.	.
1G\	1e-\	.	1g/
=181	=181	=181	=181
0F	1.f\	1c\	1a/
.	.	1d\	1f/
.	2e-\	.	.
1r	1d\	1B-\	1g/
=182	=182	=182	=182
0.r	1c\	1c\	1a/
.	1r	1d\	1.b-\
.	1r	[1e-\	.
.	.	.	2a/
=183	=183	=183	=183
0.r	1r	1e-\]	1g/
.	0B-	0d	0f
=184	=184	=184	=184
0F	1c\	0.r	0.r
.	1d\	.	.
1G\	1B-\	.	.
=185	=185	=185	=185
1A\	1c\	1r	0.r
1F\	1d\	1.d\	.
1G\	[1e-\	.	.
.	.	2B-\	.
=186	=186	=186	=186
1A\	1e-\]	1c\	1r
1.B-\	0d	1f\	0f
.	.	1d\	.
2A\	.	.	.
=187	=187	=187	=187
1G\	1r	1e-\	1g/
0F	1r	0f	1a/
.	1d\	.	1f/
=188	=188	=188	=188
1r	1B-\	1r	1g/
1r	1c\	0F	1a/
[1BB-/	[1d\	.	[1b-\
=189	=189	=189	=189
1BB-/]	1d\]	1G/	1b-\]
1C/	1c\	1A/	0a
1D\	1A/	1F/	.
=190	=190	=190	=190
1BB-/	1d\	1G/	0.r
1C/	1c\	1A/	.
1D\	1F/	[1B-\	.
=191	=191	=191	=191
0E-	0.r	2B-\]	0.r
.	.	2A/	.
.	.	1G/	.
[1D\	.	1F/	.
=192	=192	=192	=192
1D\]	0.r	1f\	1r
1r	.	1.e-\	0b-
1r	.	.	.
.	.	2d\	.
=193	=193	=193	=193
0.r	0F	1c\	1cc\
.	.	1f\	1dd\
.	1G/	1e-\	1b-\
=194	=194	=194	=194
1F\	1A/	1c\	1cc\
1D\	1F/	1B-\	1dd\
[1C/	1G/	[1c\	[1ee-\
=195	=195	=195	=195
1C/]	1A/	1c\]	1ee-\]
0BB-	0B-	0F	0dd
=196	=196	=196	=196
*M2/1	*M2/1	*M2/1	*M2/1
*met(C|)	*met(C|)	*met(C|)	*met(C|)
0F	0A	0r	1r
.	.	.	1cc\
=197	=197	=197	=197
0r	0r	1f\	1cc\
.	.	1f\	[1dd\
=198	=198	=198	=198
0r	0r	1.g\	2dd\]
.	.	.	2cc\
.	.	.	2b-\
.	.	2f\	2a/
=199	=199	=199	=199
0r	0r	2e-\	1g/
.	.	2d\	.
.	.	1c\	1cc\
=200	=200	=200	=200
0r	0r	1f\	1a/
.	.	1d\	1b-\
=201	=201	=201	=201
1r	1c\	1e-\	1.cc\
1F\	1c\	[1f\	.
.	.	.	2f/
=202	=202	=202	=202
1F\	1.d\	1f\]	1f/
[1G\	.	1B-\	1r
.	2c\	.	.
=203	=203	=203	=203
2G\]	2B-\	1r	0r
2F\	2A/	.	.
2E-\	1G/	2r	.
2D\	.	2d\	.
=204	=204	=204	=204
1C/	1c\	1e-\	2r
.	.	.	2g/
1F\	1A/	2c\	1a/
.	.	[2f\	.
=205	=205	=205	=205
1D\	1B-\	2f\]	2f/
.	.	4e-\	1b-\
.	.	4d\	.
1E-\	[1c\	1g\	.
.	.	.	4a/
.	.	.	4g/
=206	=206	=206	=206
1.F\	2c\]	2f\	2.a/
.	2F/	2.f\	.
.	.	.	4b-\
.	1F/	.	2cc\
.	.	4e-\	.
2BB-/	.	4d\	2b-\
.	.	4c\	.
=207	=207	=207	=207
0BB-	2r	4B-/	2.ff\
.	.	8A/L	.
.	.	8G/J	.
.	2.f\	2F/	.
.	.	.	4ee-i\
.	.	2.B-\	4dd\
.	4e-\	.	4cc\
.	4d\	.	4b-/
.	4c\	4c\	4a/
=208	=208	=208	=208
1.B-\	4B-/	1d\	4g/
.	4A/	.	4f/
.	4G/	.	1dd\
.	4F/	.	.
.	1G/	1r	.
4A\	.	.	4cc\
4G\	.	.	4b-\
=209	=209	=209	=209
1A\	2F/	2r	1cc\
.	2.f\	2c\	.
1B-\	.	2d\	2r
.	4e-\	.	.
.	2d\	2B-\	[2b-\
=210	=210	=210	=210
1F\	2c\	1f\	2b-\]
.	1d\	.	2a/
[1G\	.	[1B-\	2g/
.	4c\	.	[2b-\
.	4B-\	.	.
=211	=211	=211	=211
2G\]	2c\	1B-\]	2b-\]
4F\	2d\	.	4a/
4E-\	.	.	4g/
1F\	1c\	2r	1a/
.	.	[2f\	.
=212	=212	=212	=212
1G\	[0B-l	4f\]	1b-\
.	.	4d\	.
.	.	2e-\	.
1D\	.	4f\	2r
.	.	4e-\	.
.	.	4d\	2f/
.	.	4c\	.
=213	=213	=213	=213
1.E-\	0B-_	4B-/	2.g/
.	.	4A/	.
.	.	4G/	.
.	.	4F/	4a/
.	.	1G/	4b-/
.	.	.	4g/
4D/	.	.	[2b-\
4C/	.	.	.
=214	=214	=214	=214
1D\	0B-_	2F/	4b-/]
.	.	.	4a/
.	.	2f\	4g/
.	.	.	4f/
1E-\	.	1e-\	1g/
=215	=215	=215	=215
0BB-l	0B-]	0dl	0fl
==	==	==	==
*-	*-	*-	*-
!!!RDF**kern: l=long note in original notation
!!!RDF**kern: i=editorial accidental
!!!ENC:	Megan K. Eagen 05/13/2012
!!!END:	2012/05/06/
!!!EED:	Jesse Rodin
!!!EEV:	2012/05/25/
!!attribution-level@Jos: 4 (questionable)
!!!ONB:	Translated from MusicXML and edited on 2012/05/25/ by Craig Sapp
!!muse2ps: C^@{COA}?\n@{SCT}^i2I150v85,85,85,150Q16
